X:1
T:West Fork Gals - D
Z:Paul Gitlitz
M:C|
L:1/8
Q:220
K:D
"D"f4d2ef|"G"g2g2B4|"A"[e3e3]d cBA2|ABAG "D"FED2|!
"D"f4d2ef|"G"g2g2B4|"A"[e3e3]d cBA2|ABc2"D"d4:|!
|:"D"[A4A4]F2A2|dAdA F2A2|"A7"G2F2E2EE|G2F2E2E2|!
"A"[e3e3]d cBA2|ABAG FED2|"D"d2d2"A7"efge|"D"f2d2d4:|]

